!!!OTL: 1429. Abreise nach Schleswig-Holstein 1849.
!!!ARE: Europa, Mitteleuropa, Deutschland, Hessen, Lahn - Gegend
!!!SCT: E1429
!!!TXL: @@DE
!!!YEM: Copyright 1995, estate of Helmut Schaffrath.
**kern	**text
*ICvox	*
*M3/4	*
*k[b-e-]	*
*B-:	*
!LO:TX:a:t=Mäßig.	!
!LO:TX:a:t=Aus der Lahngegend vielfach mündlich 1880-90.	!
{4d	Die
=1	=1
4f	Rei-
4d	-ſe
4f	nach
=2	=2
8fL	Jüt-
8ddJ	.
4dd}	-land
{4b-	die
=3	=3
4.b-	fällt
8cc	mir
4dd	ſo
=4	=4
2cc}	ſchwer.
{8cc	Nun
8dd	a-
=5	=5
4.ee-	-de,
8cc	mein
8ff	lie-
8ee-	-bes
=6	=6
4.dd	Mäd-
8cc}	-chen
{4b-	wir
=7	=7
4cc	ſehn
4b-	uns
4a	nicht
=8	=8
2ff}	mehr!
{8gg	Nun
8ff	a-
=9	=9
4.ee-	-de,
8cc	mein
8ff	lie-
8ee-	-bes
=10	=10
4.dd	Mäd-
8cc}	-chen
{4b-	wir
=11	=11
4cc	ſehn
4b-	uns
4a	nicht
=12	=12
2b-}	mehr.
==	==
!!!AGN: Staende -, Soldaten - Lied, Liebe, Abschied
!!!ONB: ESAC (Essen Associative Code) Database: ERK3
!!!AMT: simple triple
!!!AIN: vox
!!!EED: Helmut Schaffrath
!!!EEV: 1.0
!!!GTL: Staendelieder (Berufslieder). 1. Soldaten- und Kriegslieder. Soldatenlieder seit dem 30jaehr. Kriege.
!!!URL-scan: https://rosdok.uni-rostock.de/mcrviewer/recordIdentifier/rosdok_ppn745177999/iview2/phys_0292.iview2?x=-128.77276441889308&y=1200.7925153821707&scale=0.5870222003877485&rotation=0&layout=singlePageLayout
!!!ENC: Anna Maria Matuszewska
!!!EEV: 2024/12/31
*-	*-
